static/assets/img/icons/theme/communication/adress-book-2.svg

<svg height="24" viewBox="0 0 24 24" width="24" xmlns="http://www.w3.org/2000/svg"><g fill="none" fill-rule="evenodd"><path d="m0 0h24v24h-24z" opacity="0"/><g fill="#000"><path d="m18 2h2c1.6568542 0 3 1.34314575 3 3v14c0 1.6568542-1.3431458 3-3 3h-2z" opacity=".3"/><path d="m5 2h12c1.6568542 0 3 1.34314575 3 3v14c0 1.6568542-1.3431458 3-3 3h-12c-.55228475 0-1-.4477153-1-1v-18c0-.55228475.44771525-1 1-1zm7 9c1.1045695 0 2-.8954305 2-2s-.8954305-2-2-2-2 .8954305-2 2 .8954305 2 2 2zm-4.99963795 5.4995035c-.01172969.162484.26447804.5004965.40380585.5004965h9.1773321c.4173413 0 .4238266-.3778287.4173413-.5-.1627948-3.0667545-2.3481655-4.5-5.0080961-4.5-2.62301612 0-4.77504602 1.5165724-4.99038315 4.4995035z"/></g></g></svg>

<svg width="24px" height="24px" viewBox="0 0 24 24" version="1.1" xmlns="http://www.w3.org/2000/svg" xmlns:xlink="http://www.w3.org/1999/xlink">
    <title>Icon For Adress-book#2</title>
    <g stroke="none" stroke-width="1" fill="none" fill-rule="evenodd">
        <rect opacity="0" x="0" y="0" width="24" height="24"></rect>
        <path d="M18,2 L20,2 C21.6568542,2 23,3.34314575 23,5 L23,19 C23,20.6568542 21.6568542,22 20,22 L18,22 L18,2 Z" fill="#000000" opacity="0.3"></path>
        <path d="M5,2 L17,2 C18.6568542,2 20,3.34314575 20,5 L20,19 C20,20.6568542 18.6568542,22 17,22 L5,22 C4.44771525,22 4,21.5522847 4,21 L4,3 C4,2.44771525 4.44771525,2 5,2 Z M12,11 C13.1045695,11 14,10.1045695 14,9 C14,7.8954305 13.1045695,7 12,7 C10.8954305,7 10,7.8954305 10,9 C10,10.1045695 10.8954305,11 12,11 Z M7.00036205,16.4995035 C6.98863236,16.6619875 7.26484009,17 7.4041679,17 C11.463736,17 14.5228466,17 16.5815,17 C16.9988413,17 17.0053266,16.6221713 16.9988413,16.5 C16.8360465,13.4332455 14.6506758,12 11.9907452,12 C9.36772908,12 7.21569918,13.5165724 7.00036205,16.4995035 Z" fill="#000000"></path>
    </g>
</svg>
